svg/u1fa94.svg

<svg viewBox="0 0 128 128" xmlns="http://www.w3.org/2000/svg">
  <path d="M56.1,81.32c-0.6,0.24-52.2,0.39-52.2,0.39s-1.02,6.57,2.98,15.1c2.7,5.75,7.07,13.65,12.75,18.35 c3.46,2.86,10.84,9.29,29.55,9.41c20.38,0.13,28.12-9.18,32.53-13.35c4.41-4.17,10.61-12.99,15.13-17.4s9.41-7.39,9.77-11.56 c0.36-4.17-2.74-4.29-2.74-4.29L56.1,81.32z" fill="#891E0D"/>
  <path d="M48.95,106.82c20.49-0.82,27.29-8.1,40.99-16.33c11.74-7.04,16.21-9.65,16.21-11.44 s-10.79-5.11-17.04-7.98c-8.82-4.05-21.81-11.8-44.69-11.92c-19.67-0.1-40.56,7.87-40.56,23.12 C3.87,97.76,29.18,107.61,48.95,106.82z" fill="#D75010"/>
  <path d="M35.79,67.38l-9.91,2.34L15.22,75.8l-1.17,6.82l1.81,2.98l66.29,0.96l9.06-6.29 c0,0-3.52-1.81-4.16-2.24c-0.64-0.43-24.3-8.42-24.62-8.31C62.11,69.83,35.79,67.38,35.79,67.38z" fill="#FE9700"/>
  <path d="M15.54,86.99c0,0,0.85-3.75,5.33-7.14c4.37-3.3,11.34-6.55,25.21-5.89 c12.77,0.61,22.32,5.03,26.9,8.02c4.58,2.98,7.99,5.44,7.99,5.44l-13.32,6.82l-16.52,4.16c0,0-23.34-2.34-24.41-3.3 C25.66,94.13,15.54,86.99,15.54,86.99z" fill="#D85F11"/>
  <path d="M26.07,93.72c0,0-0.07-0.05-0.18-0.18c-0.37-0.46-1.24-3.11-0.68-5.79 c1.19-5.63,6.82-8.71,11.85-9.57c6.13-1.05,11.73-0.94,11.73,3.44c0,3.52-4.94,3.18-7.39,3.41c-2.44,0.23-6.02,0.91-6.14,3.41 c-0.12,2.62,4.29,3.76,11.31,2.95c6.15-0.71,15.1-3.8,15.1-3.8l3.43,4.37l-0.4,3.13c0,0-9.83,2.95-10.34,2.9 c-0.51-0.06-17.84-0.11-18.81-0.57C34.59,96.96,26.07,93.72,26.07,93.72z" fill="#EBA961"/>
  <path d="M48.2,99.26c-2.47,0-5.12-0.12-8.02-0.37c-13.89-1.2-30.17-8.17-27.98-18.06 c1.93-8.72,13.68-14.91,32.82-14.95c20.26-0.04,46.25,12.5,47.35,13.01c0,0,1.07,0.43,1.14,1.11c0.07,0.75-0.84,1.42-0.84,1.42 c-0.32,0.26-8.02,6.39-19.13,11.89C66.22,96.94,59.07,99.26,48.2,99.26z M43.19,68.87c-16.75,0-27.39,6.03-27.82,12.4 C14.84,89.1,28.04,94.83,40.44,95.9c15.03,1.3,23.03-0.95,31.77-5.28c7.57-3.75,13.62-7.88,16.58-10.04 c-6.84-2.97-27.61-11.39-43.83-11.7C44.37,68.87,43.77,68.87,43.19,68.87z" fill="#FFE36A"/>
  <path d="M61.67,87.58c0,0,6.38-2.51,10.58-4.5c4.05-1.92,11.45-6.37,11.45-6.37l6.78,0.81l3.02,2.49 c0,0-9.43,6.43-17.4,9.97c-6.61,2.94-12.61,4.2-12.61,4.2s-3.73-0.02-3.83-3.17C59.6,88.8,61.67,87.58,61.67,87.58z" fill="#FEF499"/>
  <path d="M4.86,80.61c-0.06,1.44,1.22,2.44,3.27,2.33c1.78-0.1,3-0.93,2.94-2.44 c-0.06-1.39-1.03-2.34-2.88-2.33C6.08,78.17,4.92,79.15,4.86,80.61z" fill="#FFA821"/>
  <path d="M15.83,91.57c-1.33-0.1-3.22,0.78-3.11,2.88s2.22,2.55,3.33,2.44c1.21-0.12,2.59-0.78,2.72-2.5 C18.88,92.96,18.1,91.74,15.83,91.57z" fill="#FFA821"/>
  <path d="M34.12,99.27c-1.5-0.02-3.24,0.89-3.24,2.68c0,1.62,1.47,2.61,3.49,2.64 c1.96,0.03,3.19-1.14,3.15-2.71C37.5,100.77,36.7,99.3,34.12,99.27z" fill="#FFA821"/>
  <path d="M55.31,99.95c-2.29,0.22-3.27,1.6-3.17,2.93c0.1,1.33,1.29,2.5,3.52,2.28 c2.62-0.25,3.22-1.39,3.16-2.69S57.74,99.72,55.31,99.95z" fill="#FFA821"/>
  <path d="M72.89,94.55c-1.58,0.72-2.25,2.24-1.5,3.55c0.65,1.14,2.66,1.03,3.91,0.23 c1.24-0.8,1.92-1.97,1.24-3.31C75.95,93.87,74.39,93.87,72.89,94.55z" fill="#FFA821"/>
  <path d="M85.99,89.64c0.98,1.32,2.51,0.85,3.72-0.03c1.18-0.86,1.56-2.18,0.95-3.19 c-0.62-1.01-2.18-1.01-3.55-0.1S85.24,88.63,85.99,89.64z" fill="#FFA821"/>
  <path d="M96.81,81.61c0.88,0.95,2.43,0.9,3.72,0.07c1.4-0.91,1.63-2.22,0.75-2.84s-2.16-0.64-3.42,0.03 C97.13,79.26,95.9,80.63,96.81,81.61z" fill="#FFA821"/>
  <path d="M66.15,65.25c-0.46,1.21-0.26,2.64,2.02,3.19c2.28,0.55,3.21-0.48,3.42-1.47 c0.26-1.21-0.59-2.41-2.18-2.74C67.81,63.92,66.55,64.2,66.15,65.25z" fill="#FFA821"/>
  <path d="M47.5,62.28c-0.15,1.19,0.59,2.31,2.93,2.51s3.29-0.63,3.37-2.09c0.09-1.69-1.61-2.19-3.1-2.34 C49.13,60.2,47.68,60.83,47.5,62.28z" fill="#FFA821"/>
  <path d="M30.19,63.49c0.09,1.18,1.26,2.08,3.22,1.79c1.96-0.29,2.77-1.27,2.56-2.56 c-0.21-1.28-1.52-1.93-3.07-1.8C31.3,61.04,30.08,62.05,30.19,63.49z" fill="#FFA821"/>
  <path d="M15.81,66.62c-1.59,0.66-1.92,2.84-0.65,3.59s2.97,0.73,4.2-0.23c1.46-1.14,1.31-2.76,0.2-3.35 C18.37,65.99,17.16,66.06,15.81,66.62z" fill="#FFA821"/>
  <path d="M8.45,74.38c0.34,1.22,1.43,1.83,3.35,1.42c1.75-0.37,2.68-1.56,2.43-2.87 c-0.26-1.31-1.48-2.13-3.45-1.68C8.86,71.69,8.13,73.24,8.45,74.38z" fill="#91C354"/>
  <path d="M6.74,88.08c0.08,1.6,1.36,2.56,2.92,2.56c1.63,0,2.95-1,2.91-2.59c-0.05-1.71-1.21-2.44-2.93-2.48 C8.44,85.55,6.64,86.13,6.74,88.08z" fill="#91C354"/>
  <path d="M21.19,98.67c-0.09,1.87,1.38,2.87,3.17,2.87c1.79,0,2.96-0.88,3.05-2.67 c0.1-1.79-1.36-2.59-3.09-2.62C22.6,96.21,21.27,96.93,21.19,98.67z" fill="#91C354"/>
  <path d="M41.68,102.82c0.06,1.5,1.38,2.49,3.33,2.55c1.99,0.07,3.47-0.89,3.48-2.78 c0.01-1.52-1.4-2.55-3.52-2.55C43.01,100.04,41.61,101.13,41.68,102.82z" fill="#91C354"/>
  <path d="M62.07,101.66c0.53,1.51,2.22,1.76,4.17,1.08c1.96-0.68,2.66-2.35,2.25-3.49 c-0.52-1.43-2.31-1.73-3.95-1.24C62.91,98.5,61.42,99.8,62.07,101.66z" fill="#91C354"/>
  <path d="M80.37,90.47c-1.23,0.76-1.92,2.15-1.17,3.36c0.75,1.21,2.54,0.91,3.61,0.16 c1.18-0.82,1.99-2.18,1.08-3.39C82.91,89.31,81.32,89.89,80.37,90.47z" fill="#91C354"/>
  <path d="M92.86,82.66c-1.23,0.74-1.57,2.15-0.78,3.12c0.74,0.91,2.35,0.69,3.3,0.04 c0.95-0.65,1.53-2.14,0.49-3.13C95.1,81.95,93.85,82.07,92.86,82.66z" fill="#91C354"/>
  <path d="M73.92,67.48c-0.72,1.47,0.26,2.74,1.63,3.26c1.37,0.52,2.61,0.03,3.03-0.78s0.16-2.31-1.6-3 C75.23,66.27,74.21,66.89,73.92,67.48z" fill="#91C354"/>
  <path d="M56.83,63.43c-0.23,1.7,0.9,2.53,2.72,2.76c1.78,0.22,3.17-0.28,3.43-1.86 c0.26-1.6-1.14-2.44-2.51-2.74C59.09,61.3,57.04,61.84,56.83,63.43z" fill="#91C354"/>
  <path d="M38.56,62.39c0,1.4,1.3,2.23,3.11,2.19c1.99-0.04,3.07-0.77,3.06-2.23c-0.01-1.31-1.29-2.26-3.1-2.26 C39.77,60.09,38.56,61.13,38.56,62.39z" fill="#91C354"/>
  <path d="M24.1,63.05c-2.37,0.47-2.23,2.13-1.89,2.98c0.39,0.98,1.75,1.5,3.22,1.19 c1.97-0.41,2.64-1.83,2.18-2.87C27.07,63.11,25.67,62.74,24.1,63.05z" fill="#91C354"/>
  <radialGradient id="SVGID_1_" cx="93.645" cy="9.376" gradientUnits="userSpaceOnUse" r="57.5758">
    <stop offset="0.4179" stop-color="#FFCF18"/>
    <stop offset="0.6005" stop-color="#FFCC16"/>
    <stop offset="0.7438" stop-color="#FEC212"/>
    <stop offset="0.8733" stop-color="#FDB10A"/>
    <stop offset="0.9821" stop-color="#FC9D00"/>
  </radialGradient>
  <path d="M93.71,8.97c-1.34,0-3.48,9.38-5.76,15.94c-2.28,6.56-8.74,23.44-10.58,31.62 c-1.21,5.36-1.35,12.63,1.43,16.7c2.29,3.36,7.17,6.67,12.43,7.18c5.6,0.54,15.62-2.58,17.76-11.42c2.14-8.84-1.07-17.28-3.35-24.79 c-1.82-6-5.09-14.74-6.7-20.1C97.74,20.15,95.05,8.97,93.71,8.97z" fill="url(#SVGID_1_)"/>
  <path d="M87.34,71.14c0,0-0.79,1.68-1.53,2.72c-0.93,1.31-2.79,3.36-2.79,3.36s0.53,0.57,2.77,1.67 c4.57,2.24,8.09,1.54,8.09,1.54s1.57-1.88,2.01-3.02s0.22-3.92-3.16-5.61C89.36,70.11,87.62,70.54,87.34,71.14z" fill="#FF7512"/>
  <path d="M89.36,75.34c0,0,2.78-0.11,4.09,0.33S96,76.81,96,76.81s0.49-2.83-2.89-5.28 c-3.38-2.45-5.45-0.82-5.45-0.82s0.65,1.04,0.93,1.96C88.87,73.59,89.36,75.34,89.36,75.34z" fill="#CA750F"/>
  <radialGradient id="SVGID_2_" cx="91.3772" cy="51.1426" gradientTransform="matrix(0.0162 -0.9999 0.741 0.012 52.002 141.8952)" gradientUnits="userSpaceOnUse" r="49.412">
    <stop offset="0.184" stop-color="#FFD874"/>
    <stop offset="1" stop-color="#FFD874" stop-opacity="0"/>
  </radialGradient>
  <path d="M53.35,47.45c-1.92,26.39,6.83,55.92,40.17,54.81 c33.33-1.11,34.71-27.2,34.3-52.81c-0.4-25.12-5.11-48.46-33.12-49.13C70.24-0.26,55.35,19.88,53.35,47.45z" opacity="0.5" fill="url(#SVGID_2_)"/>
</svg>

<svg viewBox="0 0 128 128" xmlns="http://www.w3.org/2000/svg">
  <defs>
    <radialGradient id="SVGID_1_" cx="93.645" cy="9.376" gradientUnits="userSpaceOnUse" r="57.5758">
      <stop offset="0.4179" stop-color="#FFCF18"/>
      <stop offset="0.6005" stop-color="#FFCC16"/>
      <stop offset="0.7438" stop-color="#FEC212"/>
      <stop offset="0.8733" stop-color="#FDB10A"/>
      <stop offset="0.9821" stop-color="#FC9D00"/>
    </radialGradient>
    <radialGradient id="SVGID_2_" cx="-49.652966" cy="124.403988" gradientTransform="matrix(0.0162 -0.9999 0.741 0.012 0 0)" gradientUnits="userSpaceOnUse" r="49.412">
      <stop offset="0.184" stop-color="#FFD874"/>
      <stop offset="1" stop-color="#FFD874" stop-opacity="0"/>
    </radialGradient>
  </defs>
  <path d="M56.1,81.32 C55.5,81.56 3.9,81.71 3.9,81.71 C3.9,81.71 2.88,88.28 6.88,96.81 C9.58,102.56 13.95,110.46 19.63,115.16 C23.09,118.02 30.47,124.45 49.18,124.57 C69.56,124.7 77.3,115.39 81.71,111.22 C86.12,107.05 92.32,98.23 96.84,93.82 C101.36,89.41 106.25,86.43 106.61,82.26 C106.97,78.09 103.87,77.97 103.87,77.97 L56.1,81.32 Z" fill="#891E0D"/>
  <path d="M48.95,106.82 C69.44,106 76.24,98.72 89.94,90.49 C101.68,83.45 106.15,80.84 106.15,79.05 C106.15,77.26 95.36,73.94 89.11,71.07 C80.29,67.02 67.3,59.27 44.42,59.15 C24.75,59.05 3.86,67.02 3.86,82.27 C3.87,97.76 29.18,107.61 48.95,106.82 Z" fill="#D75010"/>
  <path d="M35.79,67.38 L25.88,69.72 L15.22,75.8 L14.05,82.62 L15.86,85.6 L82.15,86.56 L91.21,80.27 C91.21,80.27 87.69,78.46 87.05,78.03 C86.41,77.6 62.75,69.61 62.43,69.72 C62.11,69.83 35.79,67.38 35.79,67.38 Z" fill="#FE9700"/>
  <path d="M15.54,86.99 C15.54,86.99 16.39,83.24 20.87,79.85 C25.24,76.55 32.21,73.3 46.08,73.96 C58.85,74.57 68.4,78.99 72.98,81.98 C77.56,84.96 80.97,87.42 80.97,87.42 L67.65,94.24 L51.13,98.4 C51.13,98.4 27.79,96.06 26.72,95.1 C25.66,94.13 15.54,86.99 15.54,86.99 Z" fill="#D85F11"/>
  <path d="M26.07,93.72 C26.07,93.72 26,93.67 25.89,93.54 C25.52,93.08 24.65,90.43 25.21,87.75 C26.4,82.12 32.03,79.04 37.06,78.18 C43.19,77.13 48.79,77.24 48.79,81.62 C48.79,85.14 43.85,84.8 41.4,85.03 C38.96,85.26 35.38,85.94 35.26,88.44 C35.14,91.06 39.55,92.2 46.57,91.39 C52.72,90.68 61.67,87.59 61.67,87.59 L65.1,91.96 L64.7,95.09 C64.7,95.09 54.87,98.04 54.36,97.99 C53.85,97.93 36.52,97.88 35.55,97.42 C34.59,96.96 26.07,93.72 26.07,93.72 Z" fill="#EBA961"/>
  <path d="M48.2,99.26 C45.73,99.26 43.08,99.14 40.18,98.89 C26.29,97.69 10.01,90.72 12.2,80.83 C14.13,72.11 25.88,65.92 45.02,65.88 C65.28,65.84 91.27,78.38 92.37,78.89 C92.37,78.89 93.44,79.32 93.51,80 C93.58,80.75 92.67,81.42 92.67,81.42 C92.35,81.68 84.65,87.81 73.54,93.31 C66.22,96.94 59.07,99.26 48.2,99.26 Z M43.19,68.87 C26.44,68.87 15.8,74.9 15.37,81.27 C14.84,89.1 28.04,94.83 40.44,95.9 C55.47,97.2 63.47,94.95 72.21,90.62 C79.78,86.87 85.83,82.74 88.79,80.58 C81.95,77.61 61.18,69.19 44.96,68.88 C44.37,68.87 43.77,68.87 43.19,68.87 Z" fill="#FFE36A"/>
  <path d="M61.67,87.58 C61.67,87.58 68.05,85.07 72.25,83.08 C76.3,81.16 83.7,76.71 83.7,76.71 L90.48,77.52 L93.5,80.01 C93.5,80.01 84.07,86.44 76.1,89.98 C69.49,92.92 63.49,94.18 63.49,94.18 C63.49,94.18 59.76,94.16 59.66,91.01 C59.6,88.8 61.67,87.58 61.67,87.58 Z" fill="#FEF499"/>
  <path d="M4.86,80.61 C4.8,82.05 6.08,83.05 8.13,82.94 C9.91,82.84 11.13,82.01 11.07,80.5 C11.01,79.11 10.04,78.16 8.19,78.17 C6.08,78.17 4.92,79.15 4.86,80.61 Z" fill="#FFA821"/>
  <path d="M15.83,91.57 C14.5,91.47 12.61,92.35 12.72,94.45 C12.83,96.55 14.94,97 16.05,96.89 C17.26,96.77 18.64,96.11 18.77,94.39 C18.88,92.96 18.1,91.74 15.83,91.57 Z" fill="#FFA821"/>
  <path d="M34.12,99.27 C32.62,99.25 30.88,100.16 30.88,101.95 C30.88,103.57 32.35,104.56 34.37,104.59 C36.33,104.62 37.56,103.45 37.52,101.88 C37.5,100.77 36.7,99.3 34.12,99.27 Z" fill="#FFA821"/>
  <path d="M55.31,99.95 C53.02,100.17 52.04,101.55 52.14,102.88 C52.24,104.21 53.43,105.38 55.66,105.16 C58.28,104.91 58.88,103.77 58.82,102.47 C58.76,101.17 57.74,99.72 55.31,99.95 Z" fill="#FFA821"/>
  <path d="M72.89,94.55 C71.31,95.27 70.64,96.79 71.39,98.1 C72.04,99.24 74.05,99.13 75.3,98.33 C76.54,97.53 77.22,96.36 76.54,95.02 C75.95,93.87 74.39,93.87 72.89,94.55 Z" fill="#FFA821"/>
  <path d="M85.99,89.64 C86.97,90.96 88.5,90.49 89.71,89.61 C90.89,88.75 91.27,87.43 90.66,86.42 C90.04,85.41 88.48,85.41 87.11,86.32 C85.74,87.23 85.24,88.63 85.99,89.64 Z" fill="#FFA821"/>
  <path d="M96.81,81.61 C97.69,82.56 99.24,82.51 100.53,81.68 C101.93,80.77 102.16,79.46 101.28,78.84 C100.4,78.22 99.12,78.2 97.86,78.87 C97.13,79.26 95.9,80.63 96.81,81.61 Z" fill="#FFA821"/>
  <path d="M66.15,65.25 C65.69,66.46 65.89,67.89 68.17,68.44 C70.45,68.99 71.38,67.96 71.59,66.97 C71.85,65.76 71,64.56 69.41,64.23 C67.81,63.92 66.55,64.2 66.15,65.25 Z" fill="#FFA821"/>
  <path d="M47.5,62.28 C47.35,63.47 48.09,64.59 50.43,64.79 C52.77,64.99 53.72,64.16 53.8,62.7 C53.89,61.01 52.19,60.51 50.7,60.36 C49.13,60.2 47.68,60.83 47.5,62.28 Z" fill="#FFA821"/>
  <path d="M30.19,63.49 C30.28,64.67 31.45,65.57 33.41,65.28 C35.37,64.99 36.18,64.01 35.97,62.72 C35.76,61.44 34.45,60.79 32.9,60.92 C31.3,61.04 30.08,62.05 30.19,63.49 Z" fill="#FFA821"/>
  <path d="M15.81,66.62 C14.22,67.28 13.89,69.46 15.16,70.21 C16.43,70.96 18.13,70.94 19.36,69.98 C20.82,68.84 20.67,67.22 19.56,66.63 C18.37,65.99 17.16,66.06 15.81,66.62 Z" fill="#FFA821"/>
  <path d="M8.45,74.38 C8.79,75.6 9.88,76.21 11.8,75.8 C13.55,75.43 14.48,74.24 14.23,72.93 C13.97,71.62 12.75,70.8 10.78,71.25 C8.86,71.69 8.13,73.24 8.45,74.38 Z" fill="#91C354"/>
  <path d="M6.74,88.08 C6.82,89.68 8.1,90.64 9.66,90.64 C11.29,90.64 12.61,89.64 12.57,88.05 C12.52,86.34 11.36,85.61 9.64,85.57 C8.44,85.55 6.64,86.13 6.74,88.08 Z" fill="#91C354"/>
  <path d="M21.19,98.67 C21.1,100.54 22.57,101.54 24.36,101.54 C26.15,101.54 27.32,100.66 27.41,98.87 C27.51,97.08 26.05,96.28 24.32,96.25 C22.6,96.21 21.27,96.93 21.19,98.67 Z" fill="#91C354"/>
  <path d="M41.68,102.82 C41.74,104.32 43.06,105.31 45.01,105.37 C47,105.44 48.48,104.48 48.49,102.59 C48.5,101.07 47.09,100.04 44.97,100.04 C43.01,100.04 41.61,101.13 41.68,102.82 Z" fill="#91C354"/>
  <path d="M62.07,101.66 C62.6,103.17 64.29,103.42 66.24,102.74 C68.2,102.06 68.9,100.39 68.49,99.25 C67.97,97.82 66.18,97.52 64.54,98.01 C62.91,98.5 61.42,99.8 62.07,101.66 Z" fill="#91C354"/>
  <path d="M80.37,90.47 C79.14,91.23 78.45,92.62 79.2,93.83 C79.95,95.04 81.74,94.74 82.81,93.99 C83.99,93.17 84.8,91.81 83.89,90.6 C82.91,89.31 81.32,89.89 80.37,90.47 Z" fill="#91C354"/>
  <path d="M92.86,82.66 C91.63,83.4 91.29,84.81 92.08,85.78 C92.82,86.69 94.43,86.47 95.38,85.82 C96.33,85.17 96.91,83.68 95.87,82.69 C95.1,81.95 93.85,82.07 92.86,82.66 Z" fill="#91C354"/>
  <path d="M73.92,67.48 C73.2,68.95 74.18,70.22 75.55,70.74 C76.92,71.26 78.16,70.77 78.58,69.96 C79,69.15 78.74,67.65 76.98,66.96 C75.23,66.27 74.21,66.89 73.92,67.48 Z" fill="#91C354"/>
  <path d="M56.83,63.43 C56.6,65.13 57.73,65.96 59.55,66.19 C61.33,66.41 62.72,65.91 62.98,64.33 C63.24,62.73 61.84,61.89 60.47,61.59 C59.09,61.3 57.04,61.84 56.83,63.43 Z" fill="#91C354"/>
  <path d="M38.56,62.39 C38.56,63.79 39.86,64.62 41.67,64.58 C43.66,64.54 44.74,63.81 44.73,62.35 C44.72,61.04 43.44,60.09 41.63,60.09 C39.77,60.09 38.56,61.13 38.56,62.39 Z" fill="#91C354"/>
  <path d="M24.1,63.05 C21.73,63.52 21.87,65.18 22.21,66.03 C22.6,67.01 23.96,67.53 25.43,67.22 C27.4,66.81 28.07,65.39 27.61,64.35 C27.07,63.11 25.67,62.74 24.1,63.05 Z" fill="#91C354"/>
  <path d="M93.71,8.97 C92.37,8.97 90.23,18.35 87.95,24.91 C85.67,31.47 79.21,48.35 77.37,56.53 C76.16,61.89 76.02,69.16 78.8,73.23 C81.09,76.59 85.97,79.9 91.23,80.41 C96.83,80.95 106.85,77.83 108.99,68.99 C111.13,60.15 107.92,51.71 105.64,44.2 C103.82,38.2 100.55,29.46 98.94,24.1 C97.74,20.15 95.05,8.97 93.71,8.97 Z" fill="url(#SVGID_1_)"/>
  <path d="M87.34,71.14 C87.34,71.14 86.55,72.82 85.81,73.86 C84.88,75.17 83.02,77.22 83.02,77.22 C83.02,77.22 83.55,77.79 85.79,78.89 C90.36,81.13 93.88,80.43 93.88,80.43 C93.88,80.43 95.45,78.55 95.89,77.41 C96.33,76.27 96.11,73.49 92.73,71.8 C89.36,70.11 87.62,70.54 87.34,71.14 Z" fill="#FF7512"/>
  <path d="M89.36,75.34 C89.36,75.34 92.14,75.23 93.45,75.67 C94.76,76.11 96,76.81 96,76.81 C96,76.81 96.49,73.98 93.11,71.53 C89.73,69.08 87.66,70.71 87.66,70.71 C87.66,70.71 88.31,71.75 88.59,72.67 C88.87,73.59 89.36,75.34 89.36,75.34 Z" fill="#CA750F"/>
  <path d="M53.35,47.45 C51.43,73.84 60.18,103.37 93.52,102.26 C126.85,101.15 128.23,75.06 127.82,49.45 C127.42,24.33 122.71,0.99 94.7,0.32 C70.24,-0.26 55.35,19.88 53.35,47.45 Z" fill="url(#SVGID_2_)" opacity="0.5"/>
</svg>
